X: 25247
T: Man Behind The Bar, The
R: reel
M: 4/4
K: Amajor
AF|EC=C^C B,A,CB,|A,CCC EFAB|cAA2 (3BcB Ac|eAdc 3BcB AF|
EC=C^C B,A,CB,|A,CCC EFAB|ceAc BGAF|ECB,C A,2:|
|:cd|ecdB cA A2|CEAc e2 ce|(3dcB BA BEEc|(3dcB cA BEE2|
ec (3dcB cAA2|CEAc eaga|{fg}eedc dfec|BEGB A2:|

